;FLAVOR:Marlin
;TIME:6
;Layer height: 2
;MINX:10
;MINY:0
;MINZ:2
;MAXX:240
;MAXY:230
;MAXZ:2
T1
M140 S70
M105
M190 S70
M105
M82 ;absolute extrusion mode
G21 ;metric values
M107
G28
M420 S1
G90 ;absolute positioning
G92 E0; reset extruder distance
G1 X0 Y0 Z10 F5000 ;move nozzle up 10mm for safe homing
M500
M82 ;set extruder to absolute mode
M107 ;start with the fan off
G92 E0 ;zero the extruded length
M117 Printing...
G92 E0
G92 E0
;LAYER_COUNT:1
;LAYER:0
M107









;MESH:SlurryPrimeTower.stl
G0 F3600 X16.778 Y13.684 Z2
;TYPE:WALL-OUTER
G1 F420 X20.677 Y11.697 E0.07278
G1 X25 Y11.013 E0.14556
G1 X29.323 Y11.697 E0.21835
G1 X33.222 Y13.684 E0.29112
G1 X36.316 Y16.778 E0.36389
G1 X38.303 Y20.677 E0.43666
G1 X38.987 Y25 E0.50945
G1 X38.303 Y29.323 E0.58224
G1 X36.316 Y33.222 E0.65501
G1 X33.222 Y36.316 E0.72778
G1 X29.323 Y38.303 E0.80055
G1 X25 Y38.987 E0.87334
G1 X20.677 Y38.303 E0.94612
G1 X16.778 Y36.316 E1.0189
G1 X13.684 Y33.222 E1.09167
G1 X11.697 Y29.323 E1.16444
G1 X11.013 Y25 E1.23723
G1 X11.697 Y20.677 E1.31001
G1 X13.684 Y16.778 E1.38279
G1 X16.778 Y13.684 E1.45555
G0 F3600 X17.668 Y13.23
G0 X17.962 Y15.314
;TYPE:SKIN
G1 F420 X21.299 Y13.614 E1.51783
G1 X25 Y13.029 E1.58015
G1 X28.701 Y13.614 E1.64246
G1 X32.038 Y15.314 E1.70474
G1 X34.686 Y17.962 E1.76702
G1 X36.386 Y21.299 E1.8293
G1 X36.971 Y25 E1.89161
G1 X36.386 Y28.701 E1.95392
G1 X34.686 Y32.038 E2.0162
G1 X32.038 Y34.686 E2.07848
G1 X28.701 Y36.386 E2.14076
G1 X25 Y36.971 E2.20307
G1 X21.299 Y36.386 E2.26538
G1 X17.962 Y34.686 E2.32766
G1 X15.314 Y32.038 E2.38994
G1 X13.614 Y28.701 E2.45222
G1 X13.029 Y25 E2.51453
G1 X13.614 Y21.299 E2.57685
G1 X15.314 Y17.962 E2.63913
G1 X17.962 Y15.314 E2.7014
G0 F3600 X19.151 Y16.953
G1 F420 X21.926 Y15.539 E2.7532
G1 X25 Y15.053 E2.80495
G1 X28.074 Y15.539 E2.85671
G1 X30.849 Y16.953 E2.9085
G1 X33.047 Y19.151 E2.9602
G1 X34.461 Y21.926 E3.01199
G1 X34.947 Y25 E3.06375
G1 X34.461 Y28.074 E3.1155
G1 X33.047 Y30.849 E3.1673
G1 X30.849 Y33.047 E3.21899
G1 X28.074 Y34.461 E3.27079
G1 X25 Y34.947 E3.32254
G1 X21.926 Y34.461 E3.3743
G1 X19.151 Y33.047 E3.42609
G1 X16.953 Y30.849 E3.47778
G1 X15.539 Y28.074 E3.52958
G1 X15.053 Y25 E3.58133
G1 X15.539 Y21.926 E3.63309
G1 X16.953 Y19.151 E3.68488
G1 X19.151 Y16.953 E3.73658
G0 F3600 X27.706 Y16.392
G1 F420 X33.607 Y22.293 E3.87536
G0 F3600 X33.96 Y25.474
G1 F420 X24.525 Y16.04 E4.09725
G0 F3600 X22.111 Y16.455
G1 F420 X33.545 Y27.888 E4.36614
G0 F3600 X32.59 Y29.762
G1 F420 X20.237 Y17.408 E4.65668
G0 F3600 X18.687 Y18.687
G1 F420 X31.311 Y31.311 E4.95358
G0 F3600 X29.761 Y32.589
G1 F420 X17.408 Y20.236 E5.2441
G0 F3600 X16.454 Y22.111
G1 F420 X27.887 Y33.544 E5.51299
G0 F3600 X25.474 Y33.959
G1 F420 X16.039 Y24.524 E5.73488
G0 F3600 X16.392 Y27.705
G1 F420 X22.292 Y33.606 E5.87365
G1 X22.645 Y33.959




;Coordinate data for diamond frame structure
;Layer1 Z2
G0 F3600 X40 Y60
G1 F420 X221.8653 Y60 E8.9011
G1 F420 X221.8653 Y165 E10.6511
G1 F420 X40 Y165 E13.6822
G1 F420 X40 Y60 E15.4322
G0 F3600 X161.2436 Y77.5
G1 F420 X161.2436 Y112.5 E16.0155
G1 F420 X161.2436 Y147.5 E16.5988
G0 F3600 X100.6218 Y77.5
G1 F420 X100.6218 Y112.5 E17.1822
G1 F420 X100.6218 Y147.5 E17.7655
G0 F3600 X191.5544 Y165
G1 F420 X221.8653 Y147.5 E18.3488
G1 F420 X191.5544 Y130 E18.9322
G1 F420 X221.8653 Y112.5 E19.5155
G1 F420 X191.5544 Y95 E20.0988
G1 F420 X221.8653 Y77.5 E20.6822
G1 F420 X191.5544 Y60 E21.2655
G1 F420 X191.5544 Y95 E21.8488
G1 F420 X191.5544 Y130 E22.4322
G1 F420 X191.5544 Y165 E23.0155
G1 F420 X161.2436 Y147.5 E23.5988
G1 F420 X191.5544 Y130 E24.1822
G1 F420 X161.2436 Y112.5 E24.7655
G1 F420 X191.5544 Y95 E25.3488
G1 F420 X161.2436 Y77.5 E25.9322
G1 F420 X191.5544 Y60 E26.5155
G0 F3600 X130.9327 Y60
G1 F420 X161.2436 Y77.5 E27.0988
G1 F420 X130.9327 Y95 E27.6822
G1 F420 X161.2436 Y112.5 E28.2655
G1 F420 X130.9327 Y130 E28.8488
G1 F420 X161.2436 Y147.5 E29.4322
G1 F420 X130.9327 Y165 E30.0155
G1 F420 X130.9327 Y130 E30.5988
G1 F420 X130.9327 Y95 E31.1822
G1 F420 X130.9327 Y60 E31.7655
G1 F420 X100.6218 Y77.5 E32.3488
G1 F420 X130.9327 Y95 E32.9322
G1 F420 X100.6218 Y112.5 E33.5155
G1 F420 X130.9327 Y130 E34.0988
G1 F420 X100.6218 Y147.5 E34.6822
G1 F420 X130.9327 Y165 E35.2655
G0 F3600 X70.3109 Y165
G1 F420 X100.6218 Y147.5 E35.8488
G1 F420 X70.3109 Y130 E36.4322
G1 F420 X100.6218 Y112.5 E37.0155
G1 F420 X70.3109 Y95 E37.5988
G1 F420 X100.6218 Y77.5 E38.1822
G1 F420 X70.3109 Y60 E38.7655
G1 F420 X70.3109 Y95 E39.3488
G1 F420 X70.3109 Y130 E39.9322
G1 F420 X70.3109 Y165 E40.5155
G1 F420 X40 Y147.5 E41.0988
G1 F420 X70.3109 Y130 E41.6822
G1 F420 X40 Y112.5 E42.2655
G1 F420 X70.3109 Y95 E42.8488
G1 F420 X40 Y77.5 E43.4322
G1 F420 X70.3109 Y60 E44.0155




;Interlayer time gap
G0 F3600 X40 Y60 Z4
G91
G1 Z200
G4 S300
G1 Z-200
G90




;Layer2 Z4
G0 F3600 X40 Y60
G1 F420 X221.8653 Y60 E47.0466
G1 F420 X221.8653 Y165 E48.7966
G1 F420 X40 Y165 E51.8277
G1 F420 X40 Y60 E53.5777
G0 F3600 X161.2436 Y77.5
G1 F420 X161.2436 Y112.5 E54.161
G1 F420 X161.2436 Y147.5 E54.7444
G0 F3600 X100.6218 Y77.5
G1 F420 X100.6218 Y112.5 E55.3277
G1 F420 X100.6218 Y147.5 E55.911
G0 F3600 X191.5544 Y165
G1 F420 X221.8653 Y147.5 E56.4944
G1 F420 X191.5544 Y130 E57.0777
G1 F420 X221.8653 Y112.5 E57.661
G1 F420 X191.5544 Y95 E58.2444
G1 F420 X221.8653 Y77.5 E58.8277
G1 F420 X191.5544 Y60 E59.411
G1 F420 X191.5544 Y95 E59.9944
G1 F420 X191.5544 Y130 E60.5777
G1 F420 X191.5544 Y165 E61.161
G1 F420 X161.2436 Y147.5 E61.7444
G1 F420 X191.5544 Y130 E62.3277
G1 F420 X161.2436 Y112.5 E62.911
G1 F420 X191.5544 Y95 E63.4944
G1 F420 X161.2436 Y77.5 E64.0777
G1 F420 X191.5544 Y60 E64.661
G0 F3600 X130.9327 Y60
G1 F420 X161.2436 Y77.5 E65.2444
G1 F420 X130.9327 Y95 E65.8277
G1 F420 X161.2436 Y112.5 E66.411
G1 F420 X130.9327 Y130 E66.9944
G1 F420 X161.2436 Y147.5 E67.5777
G1 F420 X130.9327 Y165 E68.161
G1 F420 X130.9327 Y130 E68.7444
G1 F420 X130.9327 Y95 E69.3277
G1 F420 X130.9327 Y60 E69.911
G1 F420 X100.6218 Y77.5 E70.4944
G1 F420 X130.9327 Y95 E71.0777
G1 F420 X100.6218 Y112.5 E71.661
G1 F420 X130.9327 Y130 E72.2444
G1 F420 X100.6218 Y147.5 E72.8277
G1 F420 X130.9327 Y165 E73.411
G0 F3600 X70.3109 Y165
G1 F420 X100.6218 Y147.5 E73.9944
G1 F420 X70.3109 Y130 E74.5777
G1 F420 X100.6218 Y112.5 E75.161
G1 F420 X70.3109 Y95 E75.7444
G1 F420 X100.6218 Y77.5 E76.3277
G1 F420 X70.3109 Y60 E76.911
G1 F420 X70.3109 Y95 E77.4944
G1 F420 X70.3109 Y130 E78.0777
G1 F420 X70.3109 Y165 E78.661
G1 F420 X40 Y147.5 E79.2444
G1 F420 X70.3109 Y130 E79.8277
G1 F420 X40 Y112.5 E80.411
G1 F420 X70.3109 Y95 E80.9944
G1 F420 X40 Y77.5 E81.5777
G1 F420 X70.3109 Y60 E82.161




;Interlayer time gap
G0 F3600 X40 Y60 Z6
G91
G1 Z200
G4 S300
G1 Z-200
G90




;Layer3 Z6
G0 F3600 X40 Y60
G1 F420 X221.8653 Y60 E85.1921
G1 F420 X221.8653 Y165 E86.9421
G1 F420 X40 Y165 E89.9732
G1 F420 X40 Y60 E91.7232
G0 F3600 X161.2436 Y77.5
G1 F420 X161.2436 Y112.5 E92.3065
G1 F420 X161.2436 Y147.5 E92.8899
G0 F3600 X100.6218 Y77.5
G1 F420 X100.6218 Y112.5 E93.4732
G1 F420 X100.6218 Y147.5 E94.0565
G0 F3600 X191.5544 Y165
G1 F420 X221.8653 Y147.5 E94.6399
G1 F420 X191.5544 Y130 E95.2232
G1 F420 X221.8653 Y112.5 E95.8065
G1 F420 X191.5544 Y95 E96.3899
G1 F420 X221.8653 Y77.5 E96.9732
G1 F420 X191.5544 Y60 E97.5565
G1 F420 X191.5544 Y95 E98.1399
G1 F420 X191.5544 Y130 E98.7232
G1 F420 X191.5544 Y165 E99.3065
G1 F420 X161.2436 Y147.5 E99.8899
G1 F420 X191.5544 Y130 E100.4732
G1 F420 X161.2436 Y112.5 E101.0565
G1 F420 X191.5544 Y95 E101.6399
G1 F420 X161.2436 Y77.5 E102.2232
G1 F420 X191.5544 Y60 E102.8065
G0 F3600 X130.9327 Y60
G1 F420 X161.2436 Y77.5 E103.3899
G1 F420 X130.9327 Y95 E103.9732
G1 F420 X161.2436 Y112.5 E104.5565
G1 F420 X130.9327 Y130 E105.1399
G1 F420 X161.2436 Y147.5 E105.7232
G1 F420 X130.9327 Y165 E106.3065
G1 F420 X130.9327 Y130 E106.8899
G1 F420 X130.9327 Y95 E107.4732
G1 F420 X130.9327 Y60 E108.0565
G1 F420 X100.6218 Y77.5 E108.6399
G1 F420 X130.9327 Y95 E109.2232
G1 F420 X100.6218 Y112.5 E109.8065
G1 F420 X130.9327 Y130 E110.3899
G1 F420 X100.6218 Y147.5 E110.9732
G1 F420 X130.9327 Y165 E111.5565
G0 F3600 X70.3109 Y165
G1 F420 X100.6218 Y147.5 E112.1399
G1 F420 X70.3109 Y130 E112.7232
G1 F420 X100.6218 Y112.5 E113.3065
G1 F420 X70.3109 Y95 E113.8899
G1 F420 X100.6218 Y77.5 E114.4732
G1 F420 X70.3109 Y60 E115.0565
G1 F420 X70.3109 Y95 E115.6399
G1 F420 X70.3109 Y130 E116.2232
G1 F420 X70.3109 Y165 E116.8065
G1 F420 X40 Y147.5 E117.3899
G1 F420 X70.3109 Y130 E117.9732
G1 F420 X40 Y112.5 E118.5565
G1 F420 X70.3109 Y95 E119.1399
G1 F420 X40 Y77.5 E119.7232
G1 F420 X70.3109 Y60 E120.3065




;Interlayer time gap
G0 F3600 X40 Y60 Z8
G91
G1 Z200
G4 S300
G1 Z-200
G90




;Layer4 Z8
G0 F3600 X40 Y60
G1 F420 X221.8653 Y60 E123.3376
G1 F420 X221.8653 Y165 E125.0876
G1 F420 X40 Y165 E128.1187
G1 F420 X40 Y60 E129.8687
G0 F3600 X161.2436 Y77.5
G1 F420 X161.2436 Y112.5 E130.452
G1 F420 X161.2436 Y147.5 E131.0354
G0 F3600 X100.6218 Y77.5
G1 F420 X100.6218 Y112.5 E131.6187
G1 F420 X100.6218 Y147.5 E132.202
G0 F3600 X191.5544 Y165
G1 F420 X221.8653 Y147.5 E132.7854
G1 F420 X191.5544 Y130 E133.3687
G1 F420 X221.8653 Y112.5 E133.952
G1 F420 X191.5544 Y95 E134.5354
G1 F420 X221.8653 Y77.5 E135.1187
G1 F420 X191.5544 Y60 E135.702
G1 F420 X191.5544 Y95 E136.2854
G1 F420 X191.5544 Y130 E136.8687
G1 F420 X191.5544 Y165 E137.452
G1 F420 X161.2436 Y147.5 E138.0354
G1 F420 X191.5544 Y130 E138.6187
G1 F420 X161.2436 Y112.5 E139.202
G1 F420 X191.5544 Y95 E139.7854
G1 F420 X161.2436 Y77.5 E140.3687
G1 F420 X191.5544 Y60 E140.952
G0 F3600 X130.9327 Y60
G1 F420 X161.2436 Y77.5 E141.5354
G1 F420 X130.9327 Y95 E142.1187
G1 F420 X161.2436 Y112.5 E142.702
G1 F420 X130.9327 Y130 E143.2854
G1 F420 X161.2436 Y147.5 E143.8687
G1 F420 X130.9327 Y165 E144.452
G1 F420 X130.9327 Y130 E145.0354
G1 F420 X130.9327 Y95 E145.6187
G1 F420 X130.9327 Y60 E146.202
G1 F420 X100.6218 Y77.5 E146.7854
G1 F420 X130.9327 Y95 E147.3687
G1 F420 X100.6218 Y112.5 E147.952
G1 F420 X130.9327 Y130 E148.5354
G1 F420 X100.6218 Y147.5 E149.1187
G1 F420 X130.9327 Y165 E149.702
G0 F3600 X70.3109 Y165
G1 F420 X100.6218 Y147.5 E150.2854
G1 F420 X70.3109 Y130 E150.8687
G1 F420 X100.6218 Y112.5 E151.452
G1 F420 X70.3109 Y95 E152.0354
G1 F420 X100.6218 Y77.5 E152.6187
G1 F420 X70.3109 Y60 E153.202
G1 F420 X70.3109 Y95 E153.7854
G1 F420 X70.3109 Y130 E154.3687
G1 F420 X70.3109 Y165 E154.952
G1 F420 X40 Y147.5 E155.5354
G1 F420 X70.3109 Y130 E156.1187
G1 F420 X40 Y112.5 E156.702
G1 F420 X70.3109 Y95 E157.2854
G1 F420 X40 Y77.5 E157.8687
G1 F420 X70.3109 Y60 E158.452




;Interlayer time gap
G0 F3600 X40 Y60 Z10
G91
G1 Z200
G4 S300
G1 Z-200
G90




;Layer5 Z10
G0 F3600 X40 Y60
G1 F420 X221.8653 Y60 E161.4831
G1 F420 X221.8653 Y165 E163.2331
G1 F420 X40 Y165 E166.2642
G1 F420 X40 Y60 E168.0142
G0 F3600 X161.2436 Y77.5
G1 F420 X161.2436 Y112.5 E168.5976
G1 F420 X161.2436 Y147.5 E169.1809
G0 F3600 X100.6218 Y77.5
G1 F420 X100.6218 Y112.5 E169.7642
G1 F420 X100.6218 Y147.5 E170.3476
G0 F3600 X191.5544 Y165
G1 F420 X221.8653 Y147.5 E170.9309
G1 F420 X191.5544 Y130 E171.5142
G1 F420 X221.8653 Y112.5 E172.0976
G1 F420 X191.5544 Y95 E172.6809
G1 F420 X221.8653 Y77.5 E173.2642
G1 F420 X191.5544 Y60 E173.8476
G1 F420 X191.5544 Y95 E174.4309
G1 F420 X191.5544 Y130 E175.0142
G1 F420 X191.5544 Y165 E175.5976
G1 F420 X161.2436 Y147.5 E176.1809
G1 F420 X191.5544 Y130 E176.7642
G1 F420 X161.2436 Y112.5 E177.3476
G1 F420 X191.5544 Y95 E177.9309
G1 F420 X161.2436 Y77.5 E178.5142
G1 F420 X191.5544 Y60 E179.0976
G0 F3600 X130.9327 Y60
G1 F420 X161.2436 Y77.5 E179.6809
G1 F420 X130.9327 Y95 E180.2642
G1 F420 X161.2436 Y112.5 E180.8476
G1 F420 X130.9327 Y130 E181.4309
G1 F420 X161.2436 Y147.5 E182.0142
G1 F420 X130.9327 Y165 E182.5976
G1 F420 X130.9327 Y130 E183.1809
G1 F420 X130.9327 Y95 E183.7642
G1 F420 X130.9327 Y60 E184.3476
G1 F420 X100.6218 Y77.5 E184.9309
G1 F420 X130.9327 Y95 E185.5142
G1 F420 X100.6218 Y112.5 E186.0976
G1 F420 X130.9327 Y130 E186.6809
G1 F420 X100.6218 Y147.5 E187.2642
G1 F420 X130.9327 Y165 E187.8476
G0 F3600 X70.3109 Y165
G1 F420 X100.6218 Y147.5 E188.4309
G1 F420 X70.3109 Y130 E189.0142
G1 F420 X100.6218 Y112.5 E189.5976
G1 F420 X70.3109 Y95 E190.1809
G1 F420 X100.6218 Y77.5 E190.7642
G1 F420 X70.3109 Y60 E191.3476
G1 F420 X70.3109 Y95 E191.9309
G1 F420 X70.3109 Y130 E192.5142
G1 F420 X70.3109 Y165 E193.0976
G1 F420 X40 Y147.5 E193.6809
G1 F420 X70.3109 Y130 E194.2642
G1 F420 X40 Y112.5 E194.8476
G1 F420 X70.3109 Y95 E195.4309
G1 F420 X40 Y77.5 E196.0142
G1 F420 X70.3109 Y60 E196.5976




;Interlayer time gap
G0 F3600 X40 Y60 Z12
G91
G1 Z200
G4 S300
G1 Z-200
G90




;Layer6 Z12
G0 F3600 X40 Y60
G1 F420 X221.8653 Y60 E199.6286
G1 F420 X221.8653 Y165 E201.3786
G1 F420 X40 Y165 E204.4097
G1 F420 X40 Y60 E206.1597
G0 F3600 X161.2436 Y77.5
G1 F420 X161.2436 Y112.5 E206.7431
G1 F420 X161.2436 Y147.5 E207.3264
G0 F3600 X100.6218 Y77.5
G1 F420 X100.6218 Y112.5 E207.9097
G1 F420 X100.6218 Y147.5 E208.4931
G0 F3600 X191.5544 Y165
G1 F420 X221.8653 Y147.5 E209.0764
G1 F420 X191.5544 Y130 E209.6597
G1 F420 X221.8653 Y112.5 E210.2431
G1 F420 X191.5544 Y95 E210.8264
G1 F420 X221.8653 Y77.5 E211.4097
G1 F420 X191.5544 Y60 E211.9931
G1 F420 X191.5544 Y95 E212.5764
G1 F420 X191.5544 Y130 E213.1597
G1 F420 X191.5544 Y165 E213.7431
G1 F420 X161.2436 Y147.5 E214.3264
G1 F420 X191.5544 Y130 E214.9097
G1 F420 X161.2436 Y112.5 E215.4931
G1 F420 X191.5544 Y95 E216.0764
G1 F420 X161.2436 Y77.5 E216.6597
G1 F420 X191.5544 Y60 E217.2431
G0 F3600 X130.9327 Y60
G1 F420 X161.2436 Y77.5 E217.8264
G1 F420 X130.9327 Y95 E218.4097
G1 F420 X161.2436 Y112.5 E218.9931
G1 F420 X130.9327 Y130 E219.5764
G1 F420 X161.2436 Y147.5 E220.1597
G1 F420 X130.9327 Y165 E220.7431
G1 F420 X130.9327 Y130 E221.3264
G1 F420 X130.9327 Y95 E221.9097
G1 F420 X130.9327 Y60 E222.4931
G1 F420 X100.6218 Y77.5 E223.0764
G1 F420 X130.9327 Y95 E223.6597
G1 F420 X100.6218 Y112.5 E224.2431
G1 F420 X130.9327 Y130 E224.8264
G1 F420 X100.6218 Y147.5 E225.4097
G1 F420 X130.9327 Y165 E225.9931
G0 F3600 X70.3109 Y165
G1 F420 X100.6218 Y147.5 E226.5764
G1 F420 X70.3109 Y130 E227.1597
G1 F420 X100.6218 Y112.5 E227.7431
G1 F420 X70.3109 Y95 E228.3264
G1 F420 X100.6218 Y77.5 E228.9097
G1 F420 X70.3109 Y60 E229.4931
G1 F420 X70.3109 Y95 E230.0764
G1 F420 X70.3109 Y130 E230.6597
G1 F420 X70.3109 Y165 E231.2431
G1 F420 X40 Y147.5 E231.8264
G1 F420 X70.3109 Y130 E232.4097
G1 F420 X40 Y112.5 E232.9931
G1 F420 X70.3109 Y95 E233.5764
G1 F420 X40 Y77.5 E234.1597
G1 F420 X70.3109 Y60 E234.7431




;Interlayer time gap
G0 F3600 X40 Y60 Z14
G91
G1 Z200
G4 S300
G1 Z-200
G90




;Layer7 Z14
G0 F3600 X40 Y60
G1 F420 X221.8653 Y60 E237.7742
G1 F420 X221.8653 Y165 E239.5242
G1 F420 X40 Y165 E242.5552
G1 F420 X40 Y60 E244.3052
G0 F3600 X161.2436 Y77.5
G1 F420 X161.2436 Y112.5 E244.8886
G1 F420 X161.2436 Y147.5 E245.4719
G0 F3600 X100.6218 Y77.5
G1 F420 X100.6218 Y112.5 E246.0552
G1 F420 X100.6218 Y147.5 E246.6386
G0 F3600 X191.5544 Y165
G1 F420 X221.8653 Y147.5 E247.2219
G1 F420 X191.5544 Y130 E247.8052
G1 F420 X221.8653 Y112.5 E248.3886
G1 F420 X191.5544 Y95 E248.9719
G1 F420 X221.8653 Y77.5 E249.5552
G1 F420 X191.5544 Y60 E250.1386
G1 F420 X191.5544 Y95 E250.7219
G1 F420 X191.5544 Y130 E251.3052
G1 F420 X191.5544 Y165 E251.8886
G1 F420 X161.2436 Y147.5 E252.4719
G1 F420 X191.5544 Y130 E253.0552
G1 F420 X161.2436 Y112.5 E253.6386
G1 F420 X191.5544 Y95 E254.2219
G1 F420 X161.2436 Y77.5 E254.8052
G1 F420 X191.5544 Y60 E255.3886
G0 F3600 X130.9327 Y60
G1 F420 X161.2436 Y77.5 E255.9719
G1 F420 X130.9327 Y95 E256.5552
G1 F420 X161.2436 Y112.5 E257.1386
G1 F420 X130.9327 Y130 E257.7219
G1 F420 X161.2436 Y147.5 E258.3052
G1 F420 X130.9327 Y165 E258.8886
G1 F420 X130.9327 Y130 E259.4719
G1 F420 X130.9327 Y95 E260.0552
G1 F420 X130.9327 Y60 E260.6386
G1 F420 X100.6218 Y77.5 E261.2219
G1 F420 X130.9327 Y95 E261.8052
G1 F420 X100.6218 Y112.5 E262.3886
G1 F420 X130.9327 Y130 E262.9719
G1 F420 X100.6218 Y147.5 E263.5552
G1 F420 X130.9327 Y165 E264.1386
G0 F3600 X70.3109 Y165
G1 F420 X100.6218 Y147.5 E264.7219
G1 F420 X70.3109 Y130 E265.3052
G1 F420 X100.6218 Y112.5 E265.8886
