;FLAVOR:Marlin
;TIME:6
;Layer height: 2
;MINX:10
;MINY:0
;MINZ:2
;MAXX:240
;MAXY:230
;MAXZ:2
T1
M140 S70
M105
M190 S70
M105
M82 ;absolute extrusion mode
G21 ;metric values
M107
G28
M420 S1
G90 ;absolute positioning
G92 E0; reset extruder distance
G1 X0 Y0 Z10 F5000 ;move nozzle up 10mm for safe homing
M500
M82 ;set extruder to absolute mode
M107 ;start with the fan off
G92 E0 ;zero the extruded length
M117 Printing...
G92 E0
G92 E0
;LAYER_COUNT:1
;LAYER:0
M107









;MESH:SlurryPrimeTower.stl
G0 F3600 X16.778 Y13.684 Z2
;TYPE:WALL-OUTER
G1 F420 X20.677 Y11.697 E0.07278
G1 X25 Y11.013 E0.14556
G1 X29.323 Y11.697 E0.21835
G1 X33.222 Y13.684 E0.29112
G1 X36.316 Y16.778 E0.36389
G1 X38.303 Y20.677 E0.43666
G1 X38.987 Y25 E0.50945
G1 X38.303 Y29.323 E0.58224
G1 X36.316 Y33.222 E0.65501
G1 X33.222 Y36.316 E0.72778
G1 X29.323 Y38.303 E0.80055
G1 X25 Y38.987 E0.87334
G1 X20.677 Y38.303 E0.94612
G1 X16.778 Y36.316 E1.0189
G1 X13.684 Y33.222 E1.09167
G1 X11.697 Y29.323 E1.16444
G1 X11.013 Y25 E1.23723
G1 X11.697 Y20.677 E1.31001
G1 X13.684 Y16.778 E1.38279
G1 X16.778 Y13.684 E1.45555
G0 F3600 X17.668 Y13.23
G0 X17.962 Y15.314
;TYPE:SKIN
G1 F420 X21.299 Y13.614 E1.51783
G1 X25 Y13.029 E1.58015
G1 X28.701 Y13.614 E1.64246
G1 X32.038 Y15.314 E1.70474
G1 X34.686 Y17.962 E1.76702
G1 X36.386 Y21.299 E1.8293
G1 X36.971 Y25 E1.89161
G1 X36.386 Y28.701 E1.95392
G1 X34.686 Y32.038 E2.0162
G1 X32.038 Y34.686 E2.07848
G1 X28.701 Y36.386 E2.14076
G1 X25 Y36.971 E2.20307
G1 X21.299 Y36.386 E2.26538
G1 X17.962 Y34.686 E2.32766
G1 X15.314 Y32.038 E2.38994
G1 X13.614 Y28.701 E2.45222
G1 X13.029 Y25 E2.51453
G1 X13.614 Y21.299 E2.57685
G1 X15.314 Y17.962 E2.63913
G1 X17.962 Y15.314 E2.7014
G0 F3600 X19.151 Y16.953
G1 F420 X21.926 Y15.539 E2.7532
G1 X25 Y15.053 E2.80495
G1 X28.074 Y15.539 E2.85671
G1 X30.849 Y16.953 E2.9085
G1 X33.047 Y19.151 E2.9602
G1 X34.461 Y21.926 E3.01199
G1 X34.947 Y25 E3.06375
G1 X34.461 Y28.074 E3.1155
G1 X33.047 Y30.849 E3.1673
G1 X30.849 Y33.047 E3.21899
G1 X28.074 Y34.461 E3.27079
G1 X25 Y34.947 E3.32254
G1 X21.926 Y34.461 E3.3743
G1 X19.151 Y33.047 E3.42609
G1 X16.953 Y30.849 E3.47778
G1 X15.539 Y28.074 E3.52958
G1 X15.053 Y25 E3.58133
G1 X15.539 Y21.926 E3.63309
G1 X16.953 Y19.151 E3.68488
G1 X19.151 Y16.953 E3.73658
G0 F3600 X27.706 Y16.392
G1 F420 X33.607 Y22.293 E3.87536
G0 F3600 X33.96 Y25.474
G1 F420 X24.525 Y16.04 E4.09725
G0 F3600 X22.111 Y16.455
G1 F420 X33.545 Y27.888 E4.36614
G0 F3600 X32.59 Y29.762
G1 F420 X20.237 Y17.408 E4.65668
G0 F3600 X18.687 Y18.687
G1 F420 X31.311 Y31.311 E4.95358
G0 F3600 X29.761 Y32.589
G1 F420 X17.408 Y20.236 E5.2441
G0 F3600 X16.454 Y22.111
G1 F420 X27.887 Y33.544 E5.51299
G0 F3600 X25.474 Y33.959
G1 F420 X16.039 Y24.524 E5.73488
G0 F3600 X16.392 Y27.705
G1 F420 X22.292 Y33.606 E5.87365
G1 X22.645 Y33.959




;Coordinate data for diamond frame structure
;Layer1 Z2
G0 F3600 X40 Y60
G1 F420 X128 Y60 E7.3367
G1 F420 X128 Y212.4205 E9.877
G1 F420 X40 Y212.4205 E11.3437
G1 F420 X40 Y60 E13.884
G1 F420 X44 Y66.9282 E14.0173
G1 F420 X52 Y66.9282 E14.1507
G1 F420 X56 Y60 E14.284
G1 F420 X64 Y60 E14.4173
G1 F420 X68 Y66.9282 E14.5507
G1 F420 X76 Y66.9282 E14.684
G1 F420 X80 Y60 E14.8173
G1 F420 X88 Y60 E14.9507
G1 F420 X92 Y66.9282 E15.084
G1 F420 X100 Y66.9282 E15.2173
G1 F420 X104 Y60 E15.3507
G1 F420 X112 Y60 E15.484
G1 F420 X116 Y66.9282 E15.6173
G1 F420 X124 Y66.9282 E15.7507
G1 F420 X128 Y60 E15.884
G1 F420 X128 Y73.8564 E16.115
G1 F420 X124 Y66.9282 E16.2483
G1 F420 X116 Y66.9282 E16.3816
G1 F420 X112 Y73.8564 E16.515
G1 F420 X104 Y73.8564 E16.6483
G1 F420 X100 Y66.9282 E16.7816
G1 F420 X92 Y66.9282 E16.915
G1 F420 X88 Y73.8564 E17.0483
G1 F420 X80 Y73.8564 E17.1816
G1 F420 X76 Y66.9282 E17.315
G1 F420 X68 Y66.9282 E17.4483
G1 F420 X64 Y73.8564 E17.5816
G1 F420 X56 Y73.8564 E17.715
G1 F420 X52 Y66.9282 E17.8483
G1 F420 X44 Y66.9282 E17.9816
G1 F420 X40 Y73.8564 E18.115
G1 F420 X44 Y80.7846 E18.2483
G1 F420 X52 Y80.7846 E18.3816
G1 F420 X56 Y73.8564 E18.515
G1 F420 X64 Y73.8564 E18.6483
G1 F420 X68 Y80.7846 E18.7816
G1 F420 X76 Y80.7846 E18.915
G1 F420 X80 Y73.8564 E19.0483
G1 F420 X88 Y73.8564 E19.1816
G1 F420 X92 Y80.7846 E19.315
G1 F420 X100 Y80.7846 E19.4483
G1 F420 X104 Y73.8564 E19.5816
G1 F420 X112 Y73.8564 E19.715
G1 F420 X116 Y80.7846 E19.8483
G1 F420 X124 Y80.7846 E19.9816
G1 F420 X128 Y73.8564 E20.115
G1 F420 X128 Y87.7128 E20.3459
G1 F420 X124 Y80.7846 E20.4792
G1 F420 X116 Y80.7846 E20.6126
G1 F420 X112 Y87.7128 E20.7459
G1 F420 X104 Y87.7128 E20.8792
G1 F420 X100 Y80.7846 E21.0126
G1 F420 X92 Y80.7846 E21.1459
G1 F420 X88 Y87.7128 E21.2792
G1 F420 X80 Y87.7128 E21.4126
G1 F420 X76 Y80.7846 E21.5459
G1 F420 X68 Y80.7846 E21.6792
G1 F420 X64 Y87.7128 E21.8126
G1 F420 X56 Y87.7128 E21.9459
G1 F420 X52 Y80.7846 E22.0792
G1 F420 X44 Y80.7846 E22.2126
G1 F420 X40 Y87.7128 E22.3459
G1 F420 X44 Y94.641 E22.4792
G1 F420 X52 Y94.641 E22.6126
G1 F420 X56 Y87.7128 E22.7459
G1 F420 X64 Y87.7128 E22.8792
G1 F420 X68 Y94.641 E23.0126
G1 F420 X76 Y94.641 E23.1459
G1 F420 X80 Y87.7128 E23.2792
G1 F420 X88 Y87.7128 E23.4126
G1 F420 X92 Y94.641 E23.5459
G1 F420 X100 Y94.641 E23.6792
G1 F420 X104 Y87.7128 E23.8126
G1 F420 X112 Y87.7128 E23.9459
G1 F420 X116 Y94.641 E24.0792
G1 F420 X124 Y94.641 E24.2126
G1 F420 X128 Y87.7128 E24.3459
G1 F420 X128 Y101.5692 E24.5768
G1 F420 X124 Y94.641 E24.7102
G1 F420 X116 Y94.641 E24.8435
G1 F420 X112 Y101.5692 E24.9768
G1 F420 X104 Y101.5692 E25.1102
G1 F420 X100 Y94.641 E25.2435
G1 F420 X92 Y94.641 E25.3768
G1 F420 X88 Y101.5692 E25.5102
G1 F420 X80 Y101.5692 E25.6435
G1 F420 X76 Y94.641 E25.7768
G1 F420 X68 Y94.641 E25.9102
G1 F420 X64 Y101.5692 E26.0435
G1 F420 X56 Y101.5692 E26.1768
G1 F420 X52 Y94.641 E26.3102
G1 F420 X44 Y94.641 E26.4435
G1 F420 X40 Y101.5692 E26.5768
G1 F420 X44 Y108.4974 E26.7102
G1 F420 X52 Y108.4974 E26.8435
G1 F420 X56 Y101.5692 E26.9768
G1 F420 X64 Y101.5692 E27.1102
G1 F420 X68 Y108.4974 E27.2435
G1 F420 X76 Y108.4974 E27.3768
G1 F420 X80 Y101.5692 E27.5102
G1 F420 X88 Y101.5692 E27.6435
G1 F420 X92 Y108.4974 E27.7768
G1 F420 X100 Y108.4974 E27.9102
G1 F420 X104 Y101.5692 E28.0435
G1 F420 X112 Y101.5692 E28.1768
G1 F420 X116 Y108.4974 E28.3102
G1 F420 X124 Y108.4974 E28.4435
G1 F420 X128 Y101.5692 E28.5768
G1 F420 X128 Y115.4256 E28.8078
G1 F420 X124 Y108.4974 E28.9411
G1 F420 X116 Y108.4974 E29.0744
G1 F420 X112 Y115.4256 E29.2078
G1 F420 X104 Y115.4256 E29.3411
G1 F420 X100 Y108.4974 E29.4744
G1 F420 X92 Y108.4974 E29.6078
G1 F420 X88 Y115.4256 E29.7411
G1 F420 X80 Y115.4256 E29.8744
G1 F420 X76 Y108.4974 E30.0078
G1 F420 X68 Y108.4974 E30.1411
G1 F420 X64 Y115.4256 E30.2744
G1 F420 X56 Y115.4256 E30.4078
G1 F420 X52 Y108.4974 E30.5411
G1 F420 X44 Y108.4974 E30.6744
G1 F420 X40 Y115.4256 E30.8078
G1 F420 X44 Y122.3538 E30.9411
G1 F420 X52 Y122.3538 E31.0744
G1 F420 X56 Y115.4256 E31.2078
G1 F420 X64 Y115.4256 E31.3411
G1 F420 X68 Y122.3538 E31.4744
G1 F420 X76 Y122.3538 E31.6078
G1 F420 X80 Y115.4256 E31.7411
G1 F420 X88 Y115.4256 E31.8744
G1 F420 X92 Y122.3538 E32.0078
G1 F420 X100 Y122.3538 E32.1411
G1 F420 X104 Y115.4256 E32.2744
G1 F420 X112 Y115.4256 E32.4078
G1 F420 X116 Y122.3538 E32.5411
G1 F420 X124 Y122.3538 E32.6744
G1 F420 X128 Y115.4256 E32.8078
G1 F420 X128 Y129.282 E33.0387
G1 F420 X124 Y122.3538 E33.172
G1 F420 X116 Y122.3538 E33.3054
G1 F420 X112 Y129.282 E33.4387
G1 F420 X104 Y129.282 E33.572
G1 F420 X100 Y122.3538 E33.7054
G1 F420 X92 Y122.3538 E33.8387
G1 F420 X88 Y129.282 E33.972
G1 F420 X80 Y129.282 E34.1054
G1 F420 X76 Y122.3538 E34.2387
G1 F420 X68 Y122.3538 E34.372
G1 F420 X64 Y129.282 E34.5054
G1 F420 X56 Y129.282 E34.6387
G1 F420 X52 Y122.3538 E34.772
G1 F420 X44 Y122.3538 E34.9054
G1 F420 X40 Y129.282 E35.0387
G1 F420 X44 Y136.2102 E35.172
G1 F420 X52 Y136.2102 E35.3054
G1 F420 X56 Y129.282 E35.4387
G1 F420 X64 Y129.282 E35.572
G1 F420 X68 Y136.2102 E35.7054
G1 F420 X76 Y136.2102 E35.8387
G1 F420 X80 Y129.282 E35.972
G1 F420 X88 Y129.282 E36.1054
G1 F420 X92 Y136.2102 E36.2387
G1 F420 X100 Y136.2102 E36.372
G1 F420 X104 Y129.282 E36.5054
G1 F420 X112 Y129.282 E36.6387
G1 F420 X116 Y136.2102 E36.772
G1 F420 X124 Y136.2102 E36.9054
G1 F420 X128 Y129.282 E37.0387
G1 F420 X128 Y143.1384 E37.2697
G1 F420 X124 Y136.2102 E37.403
G1 F420 X116 Y136.2102 E37.5363
G1 F420 X112 Y143.1384 E37.6697
G1 F420 X104 Y143.1384 E37.803
G1 F420 X100 Y136.2102 E37.9363
G1 F420 X92 Y136.2102 E38.0697
G1 F420 X88 Y143.1384 E38.203
G1 F420 X80 Y143.1384 E38.3363
G1 F420 X76 Y136.2102 E38.4697
G1 F420 X68 Y136.2102 E38.603
G1 F420 X64 Y143.1384 E38.7363
G1 F420 X56 Y143.1384 E38.8697
G1 F420 X52 Y136.2102 E39.003
G1 F420 X44 Y136.2102 E39.1363
G1 F420 X40 Y143.1384 E39.2697
G1 F420 X44 Y150.0666 E39.403
G1 F420 X52 Y150.0666 E39.5363
G1 F420 X56 Y143.1384 E39.6697
G1 F420 X64 Y143.1384 E39.803
G1 F420 X68 Y150.0666 E39.9363
G1 F420 X76 Y150.0666 E40.0697
G1 F420 X80 Y143.1384 E40.203
G1 F420 X88 Y143.1384 E40.3363
G1 F420 X92 Y150.0666 E40.4697
G1 F420 X100 Y150.0666 E40.603
G1 F420 X104 Y143.1384 E40.7363
G1 F420 X112 Y143.1384 E40.8697
G1 F420 X116 Y150.0666 E41.003
G1 F420 X124 Y150.0666 E41.1363
G1 F420 X128 Y143.1384 E41.2697
G1 F420 X128 Y156.9948 E41.5006
G1 F420 X124 Y150.0666 E41.6339
G1 F420 X116 Y150.0666 E41.7673
G1 F420 X112 Y156.9948 E41.9006
G1 F420 X104 Y156.9948 E42.0339
G1 F420 X100 Y150.0666 E42.1673
G1 F420 X92 Y150.0666 E42.3006
G1 F420 X88 Y156.9948 E42.4339
G1 F420 X80 Y156.9948 E42.5673
G1 F420 X76 Y150.0666 E42.7006
G1 F420 X68 Y150.0666 E42.8339
G1 F420 X64 Y156.9948 E42.9673
G1 F420 X56 Y156.9948 E43.1006
G1 F420 X52 Y150.0666 E43.2339
G1 F420 X44 Y150.0666 E43.3673
G1 F420 X40 Y156.9948 E43.5006
G1 F420 X44 Y163.923 E43.6339
G1 F420 X52 Y163.923 E43.7673
G1 F420 X56 Y156.9948 E43.9006
G1 F420 X64 Y156.9948 E44.0339
G1 F420 X68 Y163.923 E44.1673
G1 F420 X76 Y163.923 E44.3006
G1 F420 X80 Y156.9948 E44.4339
G1 F420 X88 Y156.9948 E44.5673
G1 F420 X92 Y163.923 E44.7006
G1 F420 X100 Y163.923 E44.8339
G1 F420 X104 Y156.9948 E44.9673
G1 F420 X112 Y156.9948 E45.1006
G1 F420 X116 Y163.923 E45.2339
G1 F420 X124 Y163.923 E45.3673
G1 F420 X128 Y156.9948 E45.5006
G1 F420 X128 Y170.8513 E45.7315
G1 F420 X124 Y163.923 E45.8649
G1 F420 X116 Y163.923 E45.9982
G1 F420 X112 Y170.8513 E46.1315
G1 F420 X104 Y170.8513 E46.2649
G1 F420 X100 Y163.923 E46.3982
G1 F420 X92 Y163.923 E46.5315
G1 F420 X88 Y170.8513 E46.6649
G1 F420 X80 Y170.8513 E46.7982
G1 F420 X76 Y163.923 E46.9315
G1 F420 X68 Y163.923 E47.0649
G1 F420 X64 Y170.8513 E47.1982
G1 F420 X56 Y170.8513 E47.3315
G1 F420 X52 Y163.923 E47.4649
G1 F420 X44 Y163.923 E47.5982
G1 F420 X40 Y170.8513 E47.7315
G1 F420 X44 Y177.7795 E47.8649
G1 F420 X52 Y177.7795 E47.9982
G1 F420 X56 Y170.8513 E48.1315
G1 F420 X64 Y170.8513 E48.2649
G1 F420 X68 Y177.7795 E48.3982
G1 F420 X76 Y177.7795 E48.5315
G1 F420 X80 Y170.8513 E48.6649
G1 F420 X88 Y170.8513 E48.7982
G1 F420 X92 Y177.7795 E48.9315
G1 F420 X100 Y177.7795 E49.0649
G1 F420 X104 Y170.8513 E49.1982
G1 F420 X112 Y170.8513 E49.3315
G1 F420 X116 Y177.7795 E49.4649
G1 F420 X124 Y177.7795 E49.5982
G1 F420 X128 Y170.8513 E49.7315
G1 F420 X128 Y184.7077 E49.9625
G1 F420 X124 Y177.7795 E50.0958
G1 F420 X116 Y177.7795 E50.2291
G1 F420 X112 Y184.7077 E50.3625
G1 F420 X104 Y184.7077 E50.4958
G1 F420 X100 Y177.7795 E50.6291
G1 F420 X92 Y177.7795 E50.7625
G1 F420 X88 Y184.7077 E50.8958
G1 F420 X80 Y184.7077 E51.0291
G1 F420 X76 Y177.7795 E51.1625
G1 F420 X68 Y177.7795 E51.2958
G1 F420 X64 Y184.7077 E51.4291
G1 F420 X56 Y184.7077 E51.5625
G1 F420 X52 Y177.7795 E51.6958
G1 F420 X44 Y177.7795 E51.8291
G1 F420 X40 Y184.7077 E51.9625
G1 F420 X44 Y191.6359 E52.0958
G1 F420 X52 Y191.6359 E52.2291
G1 F420 X56 Y184.7077 E52.3625
G1 F420 X64 Y184.7077 E52.4958
G1 F420 X68 Y191.6359 E52.6291
G1 F420 X76 Y191.6359 E52.7625
G1 F420 X80 Y184.7077 E52.8958
G1 F420 X88 Y184.7077 E53.0291
G1 F420 X92 Y191.6359 E53.1625
G1 F420 X100 Y191.6359 E53.2958
G1 F420 X104 Y184.7077 E53.4291
G1 F420 X112 Y184.7077 E53.5625
G1 F420 X116 Y191.6359 E53.6958
G1 F420 X124 Y191.6359 E53.8291
G1 F420 X128 Y184.7077 E53.9625
G1 F420 X128 Y198.5641 E54.1934
G1 F420 X124 Y191.6359 E54.3268
G1 F420 X116 Y191.6359 E54.4601
G1 F420 X112 Y198.5641 E54.5934
G1 F420 X104 Y198.5641 E54.7268
G1 F420 X100 Y191.6359 E54.8601
G1 F420 X92 Y191.6359 E54.9934
G1 F420 X88 Y198.5641 E55.1268
G1 F420 X80 Y198.5641 E55.2601
G1 F420 X76 Y191.6359 E55.3934
G1 F420 X68 Y191.6359 E55.5268
G1 F420 X64 Y198.5641 E55.6601
G1 F420 X56 Y198.5641 E55.7934
G1 F420 X52 Y191.6359 E55.9268
G1 F420 X44 Y191.6359 E56.0601
G1 F420 X40 Y198.5641 E56.1934
G1 F420 X44 Y205.4923 E56.3268
G1 F420 X52 Y205.4923 E56.4601
G1 F420 X56 Y198.5641 E56.5934
G1 F420 X64 Y198.5641 E56.7268
G1 F420 X68 Y205.4923 E56.8601
G1 F420 X76 Y205.4923 E56.9934
G1 F420 X80 Y198.5641 E57.1268
G1 F420 X88 Y198.5641 E57.2601
G1 F420 X92 Y205.4923 E57.3934
G1 F420 X100 Y205.4923 E57.5268
G1 F420 X104 Y198.5641 E57.6601
G1 F420 X112 Y198.5641 E57.7934
G1 F420 X116 Y205.4923 E57.9268
G1 F420 X124 Y205.4923 E58.0601
G1 F420 X128 Y198.5641 E58.1934
G1 F420 X128 Y212.4205 E58.4244
G1 F420 X124 Y205.4923 E58.5577
G1 F420 X116 Y205.4923 E58.691
G1 F420 X112 Y212.4205 E58.8244
G1 F420 X104 Y212.4205 E58.9577
G1 F420 X100 Y205.4923 E59.091
G1 F420 X92 Y205.4923 E59.2244
G1 F420 X88 Y212.4205 E59.3577
G1 F420 X80 Y212.4205 E59.491
G1 F420 X76 Y205.4923 E59.6244
G1 F420 X68 Y205.4923 E59.7577
G1 F420 X64 Y212.4205 E59.891
G1 F420 X56 Y212.4205 E60.0244
G1 F420 X52 Y205.4923 E60.1577
G1 F420 X44 Y205.4923 E60.291
G1 F420 X40 Y212.4205 E60.4244




;Interlayer time gap
G0 F3600 X40 Y60 Z4
G91
G1 Z200
G4 S300
G1 Z-200
G90




;Layer2 Z4
G0 F3600 X40 Y60
G1 F420 X128 Y60 E61.891
G1 F420 X128 Y212.4205 E64.4314
G1 F420 X40 Y212.4205 E65.898
G1 F420 X40 Y60 E68.4384
G1 F420 X44 Y66.9282 E68.5717
G1 F420 X52 Y66.9282 E68.705
G1 F420 X56 Y60 E68.8384
G1 F420 X64 Y60 E68.9717
G1 F420 X68 Y66.9282 E69.105
G1 F420 X76 Y66.9282 E69.2384
G1 F420 X80 Y60 E69.3717
G1 F420 X88 Y60 E69.505
G1 F420 X92 Y66.9282 E69.6384
G1 F420 X100 Y66.9282 E69.7717
G1 F420 X104 Y60 E69.905
G1 F420 X112 Y60 E70.0384
G1 F420 X116 Y66.9282 E70.1717
G1 F420 X124 Y66.9282 E70.305
G1 F420 X128 Y60 E70.4384
G1 F420 X128 Y73.8564 E70.6693
G1 F420 X124 Y66.9282 E70.8026
G1 F420 X116 Y66.9282 E70.936
G1 F420 X112 Y73.8564 E71.0693
G1 F420 X104 Y73.8564 E71.2026
G1 F420 X100 Y66.9282 E71.336
G1 F420 X92 Y66.9282 E71.4693
G1 F420 X88 Y73.8564 E71.6026
G1 F420 X80 Y73.8564 E71.736
G1 F420 X76 Y66.9282 E71.8693
G1 F420 X68 Y66.9282 E72.0026
G1 F420 X64 Y73.8564 E72.136
G1 F420 X56 Y73.8564 E72.2693
G1 F420 X52 Y66.9282 E72.4026
G1 F420 X44 Y66.9282 E72.536
G1 F420 X40 Y73.8564 E72.6693
G1 F420 X44 Y80.7846 E72.8026
G1 F420 X52 Y80.7846 E72.936
G1 F420 X56 Y73.8564 E73.0693
G1 F420 X64 Y73.8564 E73.2026
G1 F420 X68 Y80.7846 E73.336
G1 F420 X76 Y80.7846 E73.4693
G1 F420 X80 Y73.8564 E73.6026
G1 F420 X88 Y73.8564 E73.736
G1 F420 X92 Y80.7846 E73.8693
G1 F420 X100 Y80.7846 E74.0026
G1 F420 X104 Y73.8564 E74.136
G1 F420 X112 Y73.8564 E74.2693
G1 F420 X116 Y80.7846 E74.4026
G1 F420 X124 Y80.7846 E74.536
G1 F420 X128 Y73.8564 E74.6693
G1 F420 X128 Y87.7128 E74.9003
G1 F420 X124 Y80.7846 E75.0336
G1 F420 X116 Y80.7846 E75.1669
G1 F420 X112 Y87.7128 E75.3003
G1 F420 X104 Y87.7128 E75.4336
G1 F420 X100 Y80.7846 E75.5669
G1 F420 X92 Y80.7846 E75.7003
G1 F420 X88 Y87.7128 E75.8336
G1 F420 X80 Y87.7128 E75.9669
G1 F420 X76 Y80.7846 E76.1003
G1 F420 X68 Y80.7846 E76.2336
G1 F420 X64 Y87.7128 E76.3669
G1 F420 X56 Y87.7128 E76.5003
G1 F420 X52 Y80.7846 E76.6336
G1 F420 X44 Y80.7846 E76.7669
G1 F420 X40 Y87.7128 E76.9003
G1 F420 X44 Y94.641 E77.0336
G1 F420 X52 Y94.641 E77.1669
G1 F420 X56 Y87.7128 E77.3003
G1 F420 X64 Y87.7128 E77.4336
G1 F420 X68 Y94.641 E77.5669
G1 F420 X76 Y94.641 E77.7003
G1 F420 X80 Y87.7128 E77.8336
G1 F420 X88 Y87.7128 E77.9669
G1 F420 X92 Y94.641 E78.1003
G1 F420 X100 Y94.641 E78.2336
G1 F420 X104 Y87.7128 E78.3669
G1 F420 X112 Y87.7128 E78.5003
G1 F420 X116 Y94.641 E78.6336
G1 F420 X124 Y94.641 E78.7669
G1 F420 X128 Y87.7128 E78.9003
